X: 795
T: Planxty Irwin
C:Turlough O'Carolan
B: jims roots
M:6/8
L:1/8
Q: 3/8=100
K:Gmaj
V:1 
d | "G"g2f "C"efg | "D7"d2c "G"BAG | "C"c>BA "G"Bcd | "D7"F2G A2d |
"G"g2f "C"efg | "D7"d2c "G"BAG | "C"c>BA "G"Bcd | "D7"G2F "G"G2 :|
|: d | "G"g2g g>fg | "D7"a>ba afd | "G"b2b "C"a>bg | "A7"f>ge "D7"def |
"G"g2f "C"efg | "D7"d2c "G"BAG | "Am"c2A "G"Bcd | "D7"G2F "G"G2 :|
% abcbook-tune_id 6298c279420b3698d990db86


% abcbook-boost 0
% abcbook-tablature 
% abcbook-transpose 
% abcbook-lastupdated 1654178426558
% abcbook-soundfonts 
% abcbook-repeats 1


